X: 512
T: Gla'låten
S: efter Pekkos Helmer
O: Dalarna, Bingsjö
R: Pols
Z: Håkan Lidén, 2008-09-27
M: 3/4
L: 1/8
K: A
V:1
e | a2 e/f/e/d/ c>e | a2 ag/a/ b>g | a2 fe/d/ c>A | B2 B3 e |
a2 e/f/e/d/ c>e | a2 ag/a/ b>g | a2 fe/d/ c>A | B<G A3 :: c | d>f e>d c>A | 
B<G A2 B>c | d>f e>d c>A | B2 B3 c | d>f e>d c>A | B<G A2 B>c | 
d>f e>d c>e | a2 ag/a/ b>g | a2 fe/d/ c>A | B<G A3 :|]
V:2
d | c2 c/d/c/B/ A>B | c2 cB/c/ d>B | c2 dc/B/ A>F | G2 G3 d |
c2 c/d/c/B/ A>B | c2 cB/c/ d>B | c2 dc/B/ A>F | D<B, C3 :: E | F>A G>F E>C |
D<B, C2 D>E | F>A G>F E>F | G2 G3 A | F>A G>F E>C | D<B, C2 D>E | 
F>A G>F E>A | c2 cB/c/ d>B | c2 dc/B/ A>F | D<B, C3 :|]
(:musicend:)


(:music:)
